X:58
T:Cercle circassien - Calibre 12 (R. Robert)
M:6/8
L:1/8
K:C
EAE cBA|edc fed|adf BeA|Bcd cBA|\
EAE cBA|edc fed|adf BeA|BcB A3:|
|:fdf afd|ece aec|ede bed|B2c-cd2|\
fdf afd|ece aec|EDE BED|ede a3:|
